X: 2284
M: 6/8
L: 1/8
K: G
(B/c/) |\
(d>g)e dBG | A(EF) GDB, | G,B,D GBd | {d}cBc ABc |\
(dg)e d>BG | A(EF) G>DB, | G,B,D GAc | BGG G2 :|
|:\
d/c/ |\


